src/lib/packages/icons/src/assets/line/angles-right-small.svg

<svg width="24" height="24" viewBox="0 0 24 24" fill="none" xmlns="http://www.w3.org/2000/svg">
<path d="M17.5301 12.5301L13.5301 16.5301C13.3841 16.6761 13.192 16.75 13 16.75C12.808 16.75 12.616 16.6771 12.47 16.5301C12.177 16.2371 12.177 15.762 12.47 15.469L15.94 11.999L12.47 8.52908C12.177 8.23608 12.177 7.76104 12.47 7.46804C12.763 7.17504 13.238 7.17504 13.531 7.46804L17.531 11.468C17.823 11.763 17.8231 12.2371 17.5301 12.5301ZM7.53005 7.46999C7.23705 7.17699 6.76202 7.17699 6.46902 7.46999C6.17602 7.76299 6.17602 8.23803 6.46902 8.53103L9.93899 12.001L6.46902 15.471C6.17602 15.764 6.17602 16.239 6.46902 16.532C6.61502 16.678 6.80705 16.752 6.99905 16.752C7.19105 16.752 7.38308 16.679 7.52908 16.532L11.5291 12.532C11.8221 12.239 11.8221 11.764 11.5291 11.471L7.53005 7.46999Z" fill="currentColor"/>
</svg>

<svg xmlns="http://www.w3.org/2000/svg" width="24" height="24" fill="none"><path fill="currentColor" d="m17.53 12.53-4 4a.748.748 0 0 1-1.06 0 .75.75 0 0 1 0-1.061l3.47-3.47-3.47-3.47a.75.75 0 0 1 1.061-1.061l4 4a.752.752 0 0 1 0 1.062Zm-10-5.06a.75.75 0 1 0-1.061 1.061l3.47 3.47-3.47 3.47a.75.75 0 0 0 1.06 1.061l4-4a.75.75 0 0 0 0-1.061L7.53 7.47Z"/></svg>
